src/assets/icons/share-your-love.svg

<svg width="147" height="327" viewBox="0 0 147 327" fill="none" xmlns="http://www.w3.org/2000/svg">
<g clip-path="url(#clip0_4803_87)">
<path d="M17.1611 208.465C16.957 208.208 16.8496 207.886 16.9463 207.51C16.957 207.489 16.9677 207.467 16.9677 207.445C16.8818 206.663 16.9141 205.868 17.1289 205.074C17.4296 203.915 18.0202 202.798 18.482 201.704C19.6848 198.828 20.8661 195.94 22.0797 193.074C24.1309 188.201 26.311 183.393 28.5232 178.595C29.8979 175.623 31.2296 172.585 32.7438 169.666C31.7558 169.687 30.7785 169.709 29.7905 169.719C25.9351 173.208 21.7253 177.05 18.4498 179.97C15.5931 182.503 12.6828 185.122 10.9537 188.523C9.78319 190.831 9.214 193.386 8.7307 195.929C7.78565 200.974 7.1735 206.083 6.86207 211.202C8.20445 211.202 9.55764 211.202 10.9 211.202C11.4263 211.202 11.8129 211.557 11.9847 212.029C12.2425 212.726 12.4572 213.445 12.6506 214.165C12.9942 215.442 13.2627 216.751 13.3915 218.072C13.5097 219.349 13.4882 220.722 12.8868 221.882C12.1028 223.395 10.1913 223.759 8.6448 223.932C7.9575 224.007 7.14129 224.007 6.4325 223.803C7.19499 226.26 10.492 227.56 13.2627 227.022C18.235 226.056 17.4296 224.854 21.736 215.249C21.8541 214.991 21.9616 214.701 22.0797 214.4C21.0487 213.832 20.1037 213.123 19.3197 212.297C18.2995 211.202 17.5262 209.882 17.1611 208.465Z" fill="black"/>
<path d="M9.63318 167.122C17.1829 167.477 24.7004 167.584 32.2501 167.337C32.9805 167.315 33.7107 167.315 34.4409 167.294C34.5162 167.284 34.5806 167.273 34.6558 167.284C34.6772 167.284 34.688 167.273 34.6987 167.273C34.892 167.273 35.0854 167.273 35.2786 167.284C46.6623 167.004 58.0567 167.208 69.4297 167.584C70.4499 165.212 71.4486 162.829 72.458 160.447C75.7122 152.783 79.2669 145.217 83.2618 137.908C84.8514 134.988 86.3013 132.015 89.2975 130.309C92.3153 128.602 95.9881 128.43 99.274 129.46C102.378 130.437 105.266 132.423 107.017 135.192C109.057 138.412 108.382 141.707 107.683 145.238C106.298 152.257 104.397 159.223 102.41 166.124C103.592 166.5 104.891 166.575 106.115 166.682C108.338 166.886 110.561 167.015 112.784 167.111C120.334 167.466 127.852 167.573 135.401 167.326C136.464 167.294 137.539 167.284 138.602 167.262C138.687 167.165 138.774 167.069 138.87 166.982C143.209 163.141 145.518 157.978 146.71 152.461V119.2C146.269 115.185 145.765 111.182 145.303 107.179C144.004 96.0278 143.724 85.0373 144.927 73.8422C145.356 69.8499 146.001 65.9002 146.71 61.9612V0H44.1171C37.8776 0.450782 31.6487 0.998164 25.4092 1.45968C25.2159 1.55628 25.0226 1.63141 24.8078 1.6958C17.9561 3.5848 10.4601 2.10365 3.90911 4.07851C1.81495 7.87796 0.63362 12.2356 0 16.6467V166.328C0.966539 166.532 1.98677 166.596 2.95331 166.693C5.17635 166.897 7.4101 167.015 9.63318 167.122ZM100.552 86.4108C100.585 86.4216 100.853 86.4965 100.885 86.4965C101.057 86.5614 101.24 86.6255 101.4 86.7004C101.411 86.7004 101.691 86.8509 101.723 86.8617C101.873 86.9474 102.013 87.044 102.152 87.1405C102.926 87.6771 103.592 88.2029 104.107 88.89C104.354 89.2119 104.526 89.5447 104.676 89.9315C104.708 90.0064 104.719 90.0388 104.73 90.0489C104.73 90.0705 104.74 90.1137 104.762 90.1886C104.805 90.3817 104.848 90.5754 104.891 90.7684C105.031 91.4016 105.17 92.0563 105.364 92.6678C105.353 93.0971 105.331 93.5163 105.288 93.9347C105.117 95.2867 104.762 96.5428 104.258 97.7341C104.837 97.6052 105.417 97.5411 105.997 97.5303C106.255 97.7017 106.545 97.8306 106.856 97.9055C107.995 98.1742 109.208 98.9787 110.164 99.7307C110.744 100.181 111.453 100.815 111.946 101.405C112.344 102.692 112.183 104.109 111.646 105.376C111.431 105.666 111.206 105.944 110.958 106.213C110.647 106.567 110.443 106.75 109.992 107.157C109.552 107.555 109.09 107.919 108.617 108.285C108.188 108.607 107.747 108.918 107.296 109.218C107.103 109.347 106.899 109.476 106.695 109.605C106.599 109.669 106.233 109.884 106.179 109.927C103.763 111.333 101.164 112.062 98.4792 112.792C96.6107 113.297 94.7855 113.984 92.8629 114.263C90.962 114.541 89.1043 114.263 87.2784 114.961C87.2459 114.971 87.2142 114.992 87.1818 115.003C86.9671 115.003 86.7632 115.014 86.5484 115.003C85.8285 115.54 84.4969 115.121 84.6367 113.973C85.002 111 85.657 108.07 86.5801 105.226C86.8489 104.667 87.1177 104.12 87.3857 103.573C88.4061 101.469 89.1793 99.2906 90.1348 97.1651C91.2308 94.7284 93.1209 92.7859 94.7206 90.6827C94.9678 90.3608 95.0751 90.028 95.1076 89.706C95.2466 89.5339 95.3864 89.3841 95.537 89.2119C95.8051 89.083 96.0631 88.89 96.2778 88.5896C96.4284 88.375 96.5999 88.182 96.7613 87.9781C97.1584 87.6346 97.5777 87.3126 98.018 87.0548C98.8121 86.5931 99.6718 86.3892 100.509 86.4C100.531 86.4108 100.542 86.4108 100.552 86.4108ZM44.9655 35.3006C45.3091 34.6673 45.5347 33.916 45.5132 33.0145C45.5025 32.3812 45.5454 31.748 45.5776 31.1148C45.8569 29.859 46.2005 28.6355 46.6946 27.4763C47.5752 25.4048 48.9498 23.7734 50.6144 22.5928C50.6466 22.5821 50.6681 22.5606 50.7003 22.5392C50.7862 22.5177 51.4091 22.2601 51.4736 22.2386C51.9031 22.0991 52.3434 21.981 52.7837 21.8844C52.8159 21.8737 53.5677 21.7557 53.6536 21.7342C54.0617 21.6913 54.4805 21.6698 54.8994 21.6591C57.1976 21.5947 59.2488 21.6591 61.2678 22.2386C62.2236 22.5177 63.0291 22.904 63.8882 23.43C64.06 23.5373 64.1244 23.5695 64.1674 23.591C64.2104 23.6339 64.2856 23.6983 64.4251 23.8163C64.8011 24.1276 65.1662 24.4496 65.5206 24.7716C66.7126 25.8234 67.9262 26.8752 69.2041 27.7982C69.8055 28.6355 70.3747 29.4941 70.8795 30.3742C72.5121 33.2506 73.6398 36.2343 74.3806 39.2932C75.3152 38.2092 76.3564 37.2325 77.4733 36.3739C78.2141 36.3309 78.9664 36.1592 79.6855 35.8587C82.2955 34.7317 85.8394 34.56 88.7923 34.6244C90.5859 34.6673 92.8737 34.882 94.699 35.3006C97.3414 37.2539 99.0917 40.227 99.8757 43.4898C99.8649 44.3699 99.8325 45.2393 99.7575 46.1194C99.6501 47.257 99.5212 47.9332 99.2315 49.3607C98.9411 50.7668 98.5765 52.1621 98.1787 53.5465C97.8134 54.8023 97.4055 56.0473 96.9652 57.2816C96.7721 57.829 96.5682 58.3763 96.3636 58.913C96.267 59.1706 95.8807 60.1259 95.8159 60.2868C93.1418 66.5334 89.1252 71.7388 84.948 77.0409C82.0375 80.7438 79.46 84.7254 76.1201 88.0638C72.8234 91.3583 68.7853 93.4946 66.2293 97.5303C66.1864 97.6052 66.1542 97.6801 66.1112 97.7557C65.6924 98.0561 65.3058 98.3888 64.887 98.6784C64.2748 100.771 61.053 101.888 59.6677 99.4404C56.07 93.1079 53.0952 86.4324 50.7647 79.5417C50.4748 78.0716 50.2063 76.6008 49.9378 75.1517C48.8854 69.5708 47.2208 64.1829 46.0073 58.6447C44.6219 52.3016 45.4917 45.7759 45.5347 39.3469C45.5454 38.3595 45.2769 37.5438 44.8689 36.8891C44.8689 36.3524 44.9118 35.8265 44.9655 35.3006Z" fill="black"/>
<path d="M40.2833 201.639C39.4027 200.384 38.8335 198.913 38.8335 197.368C38.8335 196.187 39.2094 195.146 39.6497 194.084C40.7773 191.379 41.905 188.674 43.0326 185.969C45.32 180.475 47.6612 175.044 50.228 169.72C45.9214 169.666 41.615 169.613 37.3085 169.559C36.6535 169.57 35.9984 169.591 35.3433 169.602C33.3672 173.198 31.7349 177.008 30.0273 180.722C28.0942 184.929 26.2041 189.146 24.3999 193.408C26.086 193.858 27.7721 194.32 29.4581 194.77C30.0488 194.932 30.4031 195.576 30.2421 196.155C30.0273 196.928 29.791 197.69 29.5333 198.452C28.5989 201.286 27.5787 204.334 25.8497 206.792C24.9476 208.079 23.981 208.841 22.4131 209.131C21.6184 209.281 20.7485 209.367 19.8894 209.325C20.9418 211.171 23.0038 212.544 24.9261 213.156C26.5693 213.671 28.3735 213.8 29.9736 213.081C31.563 212.373 32.798 211.009 33.9042 209.711C36.1272 207.092 38.157 204.334 40.2833 201.639Z" fill="black"/>
<path d="M52.7621 169.473C51.527 171.941 50.3242 174.442 49.2074 176.965C47.6931 180.367 46.34 183.834 44.9117 187.268C46.4581 187.74 48.0153 188.213 49.5618 188.696C50.2061 188.889 50.4424 189.468 50.3457 190.081C50.2598 190.692 50.131 191.304 49.9913 191.916C49.4437 194.363 48.6597 196.981 47.1347 199.01C46.3507 200.062 45.3412 201.006 44.031 201.328C43.6981 201.404 43.376 201.436 43.0537 201.446C43.7411 202.144 44.5787 202.734 45.4916 203.185C51.5056 197.282 56.9933 190.907 61.4502 183.608C64.1672 179.165 66.3902 174.529 68.4629 169.817C63.2222 169.634 57.9922 169.526 52.7621 169.473Z" fill="black"/>
<path d="M110.754 169.269C107.886 169.108 104.547 169.204 101.787 168.293C101.239 170.181 100.691 172.07 100.144 173.96C98.7797 178.671 97.1367 183.297 95.3108 187.848C94.4734 189.941 93.6037 192.023 92.7231 194.095C91.6703 196.595 89.8343 198.892 88.3412 201.157C81.5756 211.439 75.54 222.161 69.6441 232.958C68.946 234.236 67.0022 233.098 67.7003 231.821C67.8614 231.52 68.0332 231.219 68.1943 230.919C70.9865 225.832 73.8113 220.765 76.7102 215.743C80.7592 208.702 85.2052 201.972 89.5763 195.135C90.8755 193.107 91.692 190.81 92.5941 188.588C93.4423 186.517 94.2587 184.434 95.0319 182.331C96.7181 177.716 98.0605 173.025 99.3597 168.293C100.616 163.72 101.937 159.169 103.151 154.587C104.343 150.079 105.61 145.463 106.169 140.827C106.963 134.258 98.3934 129.976 92.8305 131.306C91.1335 131.715 89.4041 132.616 88.2447 133.947C87.3209 135.009 86.6659 136.416 85.9784 137.639C84.0991 140.977 82.3704 144.39 80.6951 147.825C77.1188 155.155 74.1118 162.668 70.8684 170.139C67.6466 177.565 63.7911 184.714 59.0229 191.261C49.9159 203.733 37.7806 213.403 25.9458 223.138C25.6774 223.363 25.3767 223.427 25.0974 223.406C16.3878 232.046 12.0706 238.894 10.6745 248.822C7.83934 269.021 7.60306 271.693 7.42053 327L68.1943 317.586C67.1418 266.605 69.0857 278.777 84.765 266.048C90.0274 261.776 121.075 241.652 124.554 235.835C129.494 227.57 129.441 226.121 129.204 216.505L125.177 169.752C124.737 169.752 124.286 169.752 123.845 169.741C119.474 169.645 115.115 169.516 110.754 169.269ZM71.0939 186.624C71.3731 186.109 72.146 185.894 72.6403 186.216C73.3703 186.689 74.1334 187.107 74.9174 187.483C75.0781 187.558 75.2287 187.622 75.3894 187.697C75.4002 187.708 75.4218 187.708 75.4326 187.719C75.5184 187.751 75.6149 187.794 75.7014 187.826C76.0343 187.955 76.3672 188.062 76.7102 188.148C76.8608 188.191 77.0114 188.223 77.1721 188.245C77.1829 188.245 77.1829 188.245 77.1937 188.245C77.2795 188.245 77.3551 188.255 77.4409 188.266C77.505 188.266 77.7414 188.234 77.817 188.245C77.8812 188.234 77.9453 188.213 78.021 188.191C78.6219 187.988 79.2344 188.428 79.4059 188.975C79.5998 189.576 79.1804 190.166 78.6219 190.359C77.108 190.874 75.3469 190.145 73.972 189.522C73.1238 189.136 72.2858 188.685 71.502 188.17C70.965 187.815 70.7932 187.193 71.0939 186.624ZM98.5116 134.258L100.058 134.784C100.659 134.988 101.186 135.342 101.776 135.74C103.097 136.62 103.827 138.026 103.892 139.796C103.924 140.816 103.72 141.814 103.527 142.769L103.451 143.145C103.355 143.628 103.194 144.09 103.022 144.573L102.496 146.183C102.205 146.869 100.735 151.839 99.9931 153.138C99.7359 153.599 99.2416 154.447 98.0713 154.06C97.9532 154.018 97.8134 153.964 97.6519 153.9C93.6462 152.128 89.737 150.357 86.0217 148.168C84.8831 147.503 84.69 146.88 85.2485 145.657C85.9251 144.175 86.6983 142.491 87.4282 140.805C88.3304 138.734 89.5763 136.973 91.1335 135.547C92.7548 134.065 94.3444 133.443 95.9874 133.646C96.9004 133.754 97.7809 134.012 98.5116 134.258ZM69.1394 192.055C69.3756 192.291 69.6441 192.506 69.9018 192.72C69.934 192.742 69.9555 192.764 69.9878 192.785C69.9878 192.785 70.1166 192.882 70.1488 192.903C70.3099 193.021 70.4817 193.139 70.6429 193.257C71.0187 193.515 71.3946 193.751 71.792 193.966C73.6715 195.017 75.8621 195.65 78.0851 195.21C78.6868 195.092 79.2986 195.372 79.4708 195.994C79.6207 196.552 79.2769 197.26 78.6868 197.378C74.7027 198.162 70.3958 196.456 67.5499 193.644C66.5082 192.624 68.1083 191.025 69.1394 192.055Z" fill="black"/>
<path d="M90.178 140.452C89.7701 141.321 89.3515 142.179 88.868 143.167L88.1164 144.712C87.8476 145.259 87.5904 145.807 87.3432 146.354C89.3191 147.61 95.4296 150.69 98.3833 151.914L99.4786 148.576C99.8649 147.396 100.241 146.225 100.606 145.045L100.939 143.982C101.305 142.845 101.669 141.664 101.916 140.494C102.185 139.206 101.82 138.165 100.874 137.489C100.155 136.973 99.3713 136.587 98.4583 136.287C97.9748 136.126 97.4487 135.997 96.9011 135.889C95.2798 135.589 93.9906 135.911 92.8521 136.92C91.6927 137.908 90.8013 139.099 90.178 140.452Z" fill="black"/>
<path d="M19.5991 207.028C20.1253 207.092 20.673 207.081 21.1992 207.039C21.4784 207.017 21.7577 206.963 22.0369 206.91C22.241 206.866 22.445 206.802 22.6598 206.759C22.649 206.759 22.7349 206.737 22.7887 206.717C22.8531 206.684 22.9712 206.62 23.0034 206.598C23.0356 206.577 23.0571 206.566 23.0894 206.544C23.0894 206.544 23.0894 206.544 23.1001 206.534C23.2719 206.384 23.433 206.212 23.5941 206.04C23.7874 205.826 23.8196 205.761 24.0344 205.45C24.217 205.182 24.3781 204.913 24.5391 204.634C25.2265 203.432 25.7849 202.155 26.2897 200.867C26.8266 199.482 27.2991 198.066 27.7395 196.638C26.0104 196.176 24.2814 195.704 22.5631 195.243C22.5309 195.232 22.5202 195.221 22.488 195.21L18.4285 206.748C18.7829 206.888 19.2125 206.985 19.5991 207.028Z" fill="black"/>
<path d="M6.83054 221.517C6.81985 221.517 6.79846 221.506 6.79846 221.517C6.79846 221.517 6.83053 221.527 6.87331 221.538C6.87331 221.538 6.8733 221.538 6.86262 221.538C6.85192 221.527 6.84123 221.527 6.83054 221.517Z" fill="black"/>
<path d="M6.89449 221.549C6.88382 221.549 6.87315 221.549 6.86249 221.538C6.99051 221.613 6.94783 221.581 6.89449 221.549Z" fill="black"/>
<path d="M6.83063 221.517C6.85212 221.517 6.87359 221.527 6.89507 221.538C7.04542 221.581 7.31393 221.656 7.3354 221.667C7.39982 221.678 7.64684 221.699 7.35687 221.678C7.42129 221.678 7.47498 221.689 7.5394 221.699C7.71126 221.71 7.88312 221.72 8.05491 221.71C8.51673 221.699 8.78522 221.656 9.23624 221.56C9.48326 221.506 9.73027 221.442 9.97722 221.366C10.1276 221.324 10.2779 221.27 10.4283 221.216C10.4605 221.205 10.5464 221.162 10.5894 221.151C10.6324 221.13 10.6646 221.109 10.7075 221.087C10.729 221.066 10.7505 221.044 10.772 221.034C10.8149 220.991 10.8256 220.991 10.8364 220.98C10.8471 220.969 10.8364 220.958 10.8579 220.927C10.9009 220.851 10.9438 220.765 10.9975 220.68C11.0082 220.636 11.0297 220.594 11.0404 220.54C11.0727 220.422 11.1049 220.304 11.1371 220.186C11.1478 220.143 11.1693 219.971 11.1908 219.907C11.1908 219.832 11.2123 219.66 11.2123 219.606C11.223 219.349 11.2338 219.102 11.223 218.844C11.2123 218.522 11.1908 218.211 11.1586 217.899C11.1478 217.835 11.1478 217.76 11.1371 217.696C11.1371 217.685 11.1263 217.621 11.1263 217.588C11.1156 217.546 11.0834 217.299 11.0727 217.234C10.8579 215.946 10.5142 214.68 10.1169 213.434C9.02143 213.434 7.92607 213.434 6.83063 213.434C6.80915 213.434 6.79842 213.424 6.77694 213.424L6.39032 221.356C6.49772 221.377 6.66955 221.42 6.83063 221.517Z" fill="black"/>
<path d="M6.86212 221.538C6.87278 221.549 6.88344 221.549 6.89411 221.549C6.87278 221.538 6.85146 221.527 6.83014 221.527C6.8408 221.527 6.85146 221.527 6.86212 221.538Z" fill="black"/>
<path d="M43.1077 189.072L40.6161 198.269C40.7128 198.291 40.8094 198.313 40.8953 198.377C41.0779 198.506 41.2712 198.624 41.4752 198.742C41.5397 198.774 41.8296 198.924 41.8834 198.956C42.1518 199.064 42.4418 199.139 42.7317 199.193C42.7962 199.193 42.9251 199.204 42.9788 199.204C43.0754 199.204 43.4084 199.149 43.3117 199.182C43.4084 199.16 43.4943 199.149 43.5909 199.118C43.6661 199.096 43.7413 199.064 43.8057 199.042C44.0098 198.924 44.203 198.817 44.3964 198.678C44.4501 198.634 44.5574 198.538 44.6004 198.516C44.6971 198.42 44.7937 198.334 44.8903 198.227C44.987 198.13 45.0729 198.023 45.1696 197.916C45.2126 197.862 45.2341 197.84 45.2448 197.829C45.2555 197.819 45.2663 197.798 45.3092 197.733C45.481 197.486 45.6421 197.239 45.7924 196.981C45.9428 196.714 46.0931 196.445 46.2328 196.177C46.2972 196.037 46.3724 195.897 46.4369 195.758C46.4583 195.704 46.5335 195.533 46.5657 195.468C46.5872 195.415 46.6516 195.264 46.6516 195.243C46.6731 195.189 46.6945 195.125 46.716 195.071C46.7698 194.921 46.8235 194.781 46.8771 194.631C46.9738 194.373 47.0597 194.105 47.1456 193.848C47.4893 192.774 47.7578 191.669 47.9726 190.563C46.3402 190.059 44.7185 189.565 43.1077 189.072Z" fill="black"/>
</g>
<defs>
<clipPath id="clip0_4803_87">
<rect width="147" height="327" fill="white"/>
</clipPath>
</defs>
</svg>

<svg xmlns="http://www.w3.org/2000/svg" width="147" height="327" fill="none"><g fill="#000" clip-path="url(#a)"><path d="M17.16 208.47c-.2-.26-.31-.58-.21-.96a.15.15 0 0 0 .02-.06 6.35 6.35 0 0 1 .16-2.38c.3-1.16.89-2.27 1.35-3.37 1.2-2.87 2.39-5.76 3.6-8.63 2.05-4.87 4.23-9.68 6.44-14.47 1.38-2.98 2.71-6.01 4.22-8.93l-2.95.05c-3.85 3.49-8.06 7.33-11.34 10.25-2.86 2.53-5.77 5.15-7.5 8.55-1.17 2.31-1.74 4.87-2.22 7.4a123.83 123.83 0 0 0-1.87 15.28h4.04c.53 0 .91.36 1.08.83.26.7.48 1.41.67 2.13.34 1.28.61 2.6.74 3.91a6.9 6.9 0 0 1-.5 3.81c-.79 1.52-2.7 1.88-4.25 2.05-.68.08-1.5.08-2.2-.13.75 2.46 4.05 3.76 6.82 3.22 4.97-.96 4.17-2.17 8.48-11.77l.34-.85a11.37 11.37 0 0 1-2.76-2.1 8.98 8.98 0 0 1-2.16-3.84ZM9.63 167.12c7.55.36 15.07.46 22.62.22.73-.03 1.46-.03 2.2-.05.07 0 .13-.02.2 0 .03 0 .04-.02.05-.02l.58.01c11.38-.28 22.78-.07 34.15.3 1.02-2.37 2.02-4.75 3.03-7.13 3.25-7.67 6.8-15.23 10.8-22.54 1.6-2.92 3.04-5.9 6.04-7.6 3.02-1.7 6.69-1.88 9.97-.85 3.1.98 6 2.96 7.75 5.73 2.04 3.22 1.36 6.52.66 10.05a252.62 252.62 0 0 1-5.27 20.88c1.18.38 2.48.45 3.7.56a283.4 283.4 0 0 0 29.29.64c1.06-.03 2.14-.04 3.2-.06.09-.1.17-.2.27-.28 4.34-3.84 6.65-9 7.84-14.52V119.2c-.44-4.02-.95-8.02-1.4-12.02a148.53 148.53 0 0 1-.38-33.34c.43-3.99 1.07-7.94 1.78-11.88V0H44.11c-6.23.45-12.46 1-18.7 1.46-.2.1-.39.17-.6.24-6.85 1.88-14.35.4-20.9 2.38C1.8 7.88.63 12.24 0 16.65v149.68c.97.2 1.99.27 2.95.36 2.23.2 4.46.32 6.68.43Zm90.92-80.7.34.08.51.2.32.16a8.1 8.1 0 0 1 2.38 2.03c.25.32.43.65.58 1.04l.05.12.03.14.13.58c.14.63.28 1.29.47 1.9 0 .43-.03.85-.07 1.26-.17 1.36-.53 2.61-1.03 3.8.58-.12 1.16-.19 1.74-.2.25.17.55.3.86.38a9.4 9.4 0 0 1 3.3 1.82c.58.45 1.3 1.08 1.79 1.67.4 1.3.23 2.7-.3 3.98-.22.29-.44.56-.7.83-.3.36-.5.54-.96.95a23.1 23.1 0 0 1-3.3 2.45c-.1.06-.46.27-.51.32-2.42 1.4-5.02 2.13-7.7 2.86-1.87.5-3.7 1.2-5.62 1.47-1.9.28-3.76 0-5.58.7l-.1.04h-.63c-.72.54-2.05.12-1.91-1.03.36-2.97 1.02-5.9 1.94-8.74l.8-1.66c1.03-2.1 1.8-4.28 2.75-6.4 1.1-2.44 3-4.38 4.6-6.49.24-.32.35-.65.38-.97.14-.18.28-.33.43-.5.27-.13.52-.32.74-.62.15-.22.32-.4.48-.61.4-.35.82-.67 1.26-.93a4.81 4.81 0 0 1 2.53-.64ZM44.97 35.3c.34-.63.56-1.38.54-2.29 0-.63.04-1.26.07-1.9a20.7 20.7 0 0 1 1.11-3.63 11.4 11.4 0 0 1 3.92-4.89c.04 0 .06-.03.09-.05.09-.02.7-.28.77-.3.43-.14.87-.26 1.31-.36.04 0 .79-.12.87-.15.41-.04.83-.06 1.25-.07 2.3-.07 4.35 0 6.37.58a10.48 10.48 0 0 1 3.16 1.58c.37.3.74.63 1.1.95a49.2 49.2 0 0 0 3.67 3.03c.6.84 1.17 1.7 1.68 2.57a34.29 34.29 0 0 1 3.5 8.92 20.91 20.91 0 0 1 3.1-2.92c.73-.04 1.49-.21 2.2-.51 2.62-1.13 6.16-1.3 9.11-1.24 1.8.05 4.08.26 5.9.68a14.2 14.2 0 0 1 5.19 8.19 26.8 26.8 0 0 1-.64 5.87 56.76 56.76 0 0 1-2.27 7.92l-.6 1.63-.55 1.38c-2.68 6.24-6.7 11.45-10.87 16.75-2.91 3.7-5.49 7.69-8.83 11.02-3.3 3.3-7.33 5.43-9.9 9.47l-.1.23c-.43.3-.81.63-1.23.92-.62 2.1-3.84 3.2-5.22.76-3.6-6.33-6.57-13-8.9-19.9-.3-1.47-.56-2.94-.83-4.39-1.05-5.58-2.72-10.97-3.93-16.5-1.39-6.35-.52-12.87-.48-19.3.02-1-.25-1.8-.66-2.46 0-.54.04-1.06.1-1.59Z"/><path d="M40.28 201.64a7.49 7.49 0 0 1-1.45-4.27c0-1.18.38-2.22.82-3.29l3.38-8.11c2.29-5.5 4.63-10.93 7.2-16.25l-12.92-.16-1.97.04c-1.97 3.6-3.6 7.4-5.31 11.12-1.94 4.2-3.83 8.43-5.63 12.69l5.06 1.36c.59.16.94.8.78 1.38-.21.78-.45 1.54-.7 2.3-.94 2.84-1.96 5.88-3.69 8.34a5.03 5.03 0 0 1-3.44 2.34c-.8.15-1.66.24-2.52.2a9.13 9.13 0 0 0 5.04 3.83c1.64.51 3.44.64 5.04-.08 1.6-.7 2.83-2.07 3.93-3.37 2.23-2.62 4.26-5.38 6.38-8.07ZM52.76 169.47a175.73 175.73 0 0 0-3.55 7.5c-1.52 3.4-2.87 6.86-4.3 10.3 1.55.47 3.1.94 4.65 1.43.65.19.88.77.79 1.38-.09.61-.22 1.22-.36 1.84-.55 2.44-1.33 5.06-2.86 7.09-.78 1.05-1.79 2-3.1 2.32-.33.07-.65.1-.98.12.7.7 1.53 1.28 2.44 1.74 6.02-5.9 11.5-12.28 15.96-19.58 2.72-4.45 4.94-9.08 7.01-13.8a633.7 633.7 0 0 0-15.7-.34Z"/><path d="M110.75 169.27c-2.86-.16-6.2-.07-8.96-.98a7648 7648 0 0 0-1.65 5.67c-1.36 4.71-3 9.34-4.83 13.89-.84 2.1-1.7 4.17-2.59 6.25-1.05 2.5-2.89 4.8-4.38 7.06-6.76 10.28-12.8 21-18.7 31.8-.7 1.28-2.64.14-1.94-1.14l.5-.9c2.79-5.09 5.61-10.16 8.51-15.18 4.05-7.04 8.5-13.77 12.87-20.6 1.3-2.03 2.11-4.33 3.01-6.55.85-2.07 1.67-4.16 2.44-6.26a178 178 0 0 0 4.33-14.04c1.26-4.57 2.58-9.12 3.8-13.7 1.18-4.51 2.45-9.13 3-13.76.8-6.57-7.77-10.85-13.33-9.52a8.95 8.95 0 0 0-4.59 2.64c-.92 1.06-1.57 2.47-2.26 3.69-1.88 3.34-3.61 6.75-5.28 10.19-3.58 7.32-6.59 14.84-9.83 22.3a110.23 110.23 0 0 1-11.85 21.13c-9.1 12.47-21.24 22.14-33.07 31.88-.27.22-.57.29-.85.27-8.71 8.64-13.03 15.48-14.43 25.41C7.84 269.02 7.6 271.7 7.42 327l60.77-9.41c-1.05-50.98.9-38.81 16.58-51.54 5.26-4.27 36.3-24.4 39.78-30.22 4.94-8.26 4.9-9.7 4.65-19.33l-4.02-46.75h-1.34c-4.37-.1-8.73-.23-13.09-.48ZM71.1 186.62c.28-.51 1.06-.73 1.55-.4.73.47 1.5.89 2.28 1.26l.47.22c.01 0 .03 0 .04.02l.27.1a8.5 8.5 0 0 0 1.47.43h.02c.09 0 .17 0 .25.02.06 0 .3-.04.38-.03.06 0 .13-.03.2-.05.6-.2 1.21.24 1.39.78.19.6-.23 1.2-.79 1.39-1.51.51-3.27-.22-4.65-.84-.85-.38-1.68-.84-2.47-1.35-.53-.35-.7-.98-.4-1.55Zm27.42-52.36 1.55.52c.6.2 1.13.56 1.72.96a4.86 4.86 0 0 1 2.11 4.06c.03 1.02-.17 2.01-.36 2.97l-.08.38c-.1.48-.26.94-.43 1.42l-.52 1.61c-.3.69-1.77 5.66-2.5 6.96-.26.46-.76 1.3-1.93.92l-.42-.16c-4-1.77-7.91-3.54-11.63-5.73-1.14-.67-1.33-1.29-.77-2.51.68-1.48 1.45-3.17 2.18-4.85.9-2.08 2.15-3.84 3.7-5.26 1.62-1.49 3.21-2.1 4.86-1.9.91.1 1.8.36 2.52.6Zm-29.37 57.8c.24.23.5.45.76.66l.09.06.16.12.5.36c.37.25.74.5 1.14.7a9.26 9.26 0 0 0 6.3 1.25c.6-.12 1.2.16 1.38.78.15.56-.2 1.27-.78 1.39-3.99.78-8.3-.92-11.14-3.74-1.04-1.02.56-2.61 1.59-1.58Z"/><path d="m90.18 140.45-1.31 2.72-.75 1.54-.78 1.64c1.98 1.26 8.09 4.34 11.04 5.56l1.1-3.33 1.13-3.54.33-1.06c.37-1.13.73-2.32.98-3.49.27-1.28-.1-2.33-1.05-3-.72-.52-1.5-.9-2.41-1.2-.49-.16-1.01-.3-1.56-.4a4.45 4.45 0 0 0-4.05 1.03 10.22 10.22 0 0 0-2.67 3.53ZM19.6 207.03c.53.06 1.07.05 1.6 0 .28-.01.56-.07.84-.12l.62-.15.13-.04.21-.12.09-.06h.01l.5-.5c.19-.21.22-.28.43-.59a28.53 28.53 0 0 0 2.26-4.58c.54-1.39 1-2.8 1.45-4.23l-5.18-1.4c-.03 0-.04-.02-.07-.03l-4.06 11.54c.35.14.78.24 1.17.28ZM6.83 221.52H6.8l.07.02-.04-.02ZM6.9 221.55l-.04-.01c.13.07.09.04.03 0ZM6.83 221.52c.02 0 .04 0 .07.02l.44.13c.06 0 .3.03.02 0l.18.03c.17.01.34.02.51.01.47-.01.74-.05 1.19-.15.24-.05.49-.12.74-.2l.45-.14.16-.07.12-.06.06-.06.07-.05.02-.05c.04-.08.08-.17.14-.25 0-.04.03-.09.04-.14l.1-.35.05-.28.02-.3c.01-.26.02-.5.01-.77 0-.32-.03-.63-.06-.94l-.02-.2-.01-.11-.06-.36a27.37 27.37 0 0 0-.95-3.8H6.78l-.39 7.93c.1.02.28.06.44.16Z"/><path d="M6.86 221.54h.03l-.06-.01h.03ZM43.1 189.07l-2.48 9.2c.1.02.19.04.28.1a7.56 7.56 0 0 0 .98.59c.27.1.56.18.85.23l.25.01c.1 0 .43-.05.33-.02l.28-.06.22-.08c.2-.12.4-.22.59-.36l.2-.16c.1-.1.2-.19.29-.3.1-.09.18-.2.28-.3l.07-.1c.02 0 .03-.02.07-.09a11.09 11.09 0 0 0 .92-1.55l.2-.42.14-.3.08-.22.07-.17.16-.44.27-.78c.34-1.08.6-2.18.82-3.29l-4.86-1.49Z"/></g><defs><clipPath id="a"><path fill="#fff" d="M0 0h147v327H0z"/></clipPath></defs></svg>
